weblinks/svg/HumbleBundle.svg

<?xml version="1.0" encoding="UTF-8"?>
<svg width="1027px" height="1014px" viewBox="0 0 1027 1014" version="1.1" xmlns="http://www.w3.org/2000/svg" xmlns:xlink="http://www.w3.org/1999/xlink">
    <!-- Generator: Sketch 43.2 (39069) - http://www.bohemiancoding.com/sketch -->
    <title>H-Red</title>
    <desc>Created with Sketch.</desc>
    <defs></defs>
    <g id="Page-1" stroke="none" stroke-width="1" fill="none" fill-rule="evenodd">
        <path d="M765.201172,820.589844 C620.475426,820.589844 843.283203,0.189453125 843.283203,0.189453125 L694.142578,5.68434189e-14 C694.142578,5.68434189e-14 633.090481,193.090536 592.811289,407.652717 L464.271164,407.652717 C467.639745,363.532521 469.262415,318.878282 468.522971,274.491064 C462.730655,-78.7375255 255.842002,-13.3140749 163.226562,67.7578125 C75.1710315,144.824375 1.42382812,291.240234 0,403.996094 C14.0273437,403.3125 69.4453125,403.074219 69.4453125,403.074219 C69.4453125,403.074219 115.528161,192.837891 260.253906,192.837891 C404.959112,192.837891 181.810547,1013.25 181.810547,1013.25 L331.015625,1013.36133 C331.015625,1013.36133 408.132049,793.724753 446.480469,548.455078 L569.224609,547.75 C562.076645,611.218997 559.803302,681.30885 560.850849,746.400517 C566.663705,1099.62911 772.743935,1023.82674 865.359375,942.775391 C957.974815,861.703503 1027.08594,690.517578 1026.23242,608.322266 C1026.3457,608.228516 955.882812,608.892578 955.037109,608.875 C955.279297,615.365234 909.906377,820.589844 765.201172,820.589844 Z" id="H-Red" fill="#D0011B"></path>
    </g>
</svg>

<svg id="Layer_1" data-name="Layer 1" xmlns="http://www.w3.org/2000/svg" xmlns:xlink="http://www.w3.org/1999/xlink" viewBox="0 0 1026.24 1013.361"><defs><linearGradient id="linear-gradient" x1="513.12" x2="513.12" y2="1013.361" gradientUnits="userSpaceOnUse"><stop offset="0" stop-color="#e65c60"/><stop offset="1" stop-color="#cb272c"/></linearGradient></defs><title>HumbleBundle</title><g id="Page-1"><path id="H-Red" d="M765.2,820.59c-144.726,0,78.082-820.4,78.082-820.4L694.143,0S633.09,193.091,592.811,407.653H464.271c3.369-44.12,4.991-88.775,4.252-133.162-5.792-353.229-212.681-287.8-305.3-206.733C75.171,144.824,1.424,291.24,0,404c14.027-.683,69.445-.922,69.445-.922s46.083-210.236,190.809-210.236c144.7,0-78.443,820.412-78.443,820.412l149.205.111S408.132,793.725,446.48,548.455l122.745-.705c-7.148,63.469-9.422,133.559-8.374,198.651,5.813,353.228,211.893,277.426,304.508,196.374,92.616-81.072,161.727-252.257,160.873-334.453.114-.093-70.349.571-71.195.553C955.279,615.365,909.906,820.59,765.2,820.59Z" fill="url(#linear-gradient)"/></g></svg>
